mimetypes/symbolic/x-office-document-symbolic.svg

<svg enable-background="new" height="16" width="16" xmlns="http://www.w3.org/2000/svg"><path d="m9.3333332 11.333333h-4.666666v-1.3333332h4.666666m1.9999998-1.3333333h-6.6666658v-1.3333333h6.6666658m0-1.3333333h-6.6666658v-1.3333333h6.6666658m1.333333-2.6666666h-9.3333328c-.7399999 0-1.333333.5933333-1.333333 1.3333333v9.3333337a1.3333333 1.3333333 0 0 0 1.333333 1.333333h9.3333328a1.3333333 1.3333333 0 0 0 1.333334-1.333333v-9.3333337c0-.74-.6-1.3333333-1.333334-1.3333333z" fill="#bebebe" stroke-width=".666667"/></svg>

<?xml version="1.0" encoding="UTF-8" standalone="no"?>
<!-- Created with Inkscape (http://www.inkscape.org/) -->

<svg
   xmlns:osb="http://www.openswatchbook.org/uri/2009/osb"
   xmlns:dc="http://purl.org/dc/elements/1.1/"
   xmlns:cc="http://creativecommons.org/ns#"
   xmlns:rdf="http://www.w3.org/1999/02/22-rdf-syntax-ns#"
   xmlns:svg="http://www.w3.org/2000/svg"
   xmlns="http://www.w3.org/2000/svg"
   xmlns:sodipodi="http://sodipodi.sourceforge.net/DTD/sodipodi-0.dtd"
   xmlns:inkscape="http://www.inkscape.org/namespaces/inkscape"
   sodipodi:docname="x-office-document-symbolic.svg"
   inkscape:export-filename="/home/sam/source-symbolic.png"
   inkscape:export-xdpi="270"
   inkscape:export-ydpi="270"
   height="16"
   id="svg7384"
   style="enable-background:new"
   version="1.1"
   inkscape:version="0.92+devel unknown"
   width="16">
  <sodipodi:namedview
     inkscape:bbox-nodes="true"
     inkscape:bbox-paths="false"
     bordercolor="#666666"
     borderlayer="false"
     borderopacity="1"
     inkscape:current-layer="svg7384"
     inkscape:cx="-4.0969334"
     inkscape:cy="9.5812392"
     gridtolerance="10"
     inkscape:guide-bbox="true"
     guidetolerance="10"
     id="namedview88"
     inkscape:object-nodes="true"
     inkscape:object-paths="true"
     objecttolerance="10"
     pagecolor="#f7f7f7"
     inkscape:pageopacity="1"
     inkscape:pageshadow="2"
     showborder="true"
     showgrid="false"
     showguides="true"
     inkscape:showpageshadow="false"
     inkscape:snap-bbox="true"
     inkscape:snap-bbox-edge-midpoints="false"
     inkscape:snap-bbox-midpoints="true"
     inkscape:snap-center="false"
     inkscape:snap-global="true"
     inkscape:snap-grids="true"
     inkscape:snap-intersection-paths="true"
     inkscape:snap-midpoints="true"
     inkscape:snap-nodes="true"
     inkscape:snap-object-midpoints="true"
     inkscape:snap-others="true"
     inkscape:snap-page="false"
     inkscape:snap-smooth-nodes="true"
     inkscape:snap-to-guides="true"
     inkscape:window-height="642"
     inkscape:window-maximized="1"
     inkscape:window-width="1366"
     inkscape:window-x="0"
     inkscape:window-y="33"
     inkscape:zoom="31.999999"
     inkscape:document-rotation="0">
    <inkscape:grid
       color="#000000"
       dotted="false"
       empcolor="#0800ff"
       empopacity="0.4627451"
       empspacing="4"
       enabled="true"
       id="grid4866"
       opacity="0.16470588"
       originx="-463.99998"
       originy="-548.00336"
       snapvisiblegridlinesonly="true"
       spacingx="0.25"
       spacingy="0.25"
       type="xygrid"
       visible="true" />
  </sodipodi:namedview>
  <metadata
     id="metadata90">
    <rdf:RDF>
      <cc:Work
         rdf:about="">
        <dc:format>image/svg+xml</dc:format>
        <dc:type
           rdf:resource="http://purl.org/dc/dcmitype/StillImage" />
        <dc:title>Paper Symbolic Icon Theme</dc:title>
      </cc:Work>
    </rdf:RDF>
  </metadata>
  <title
     id="title8473">Paper Symbolic Icon Theme</title>
  <defs
     id="defs7386">
    <linearGradient
       id="linearGradient5606"
       osb:paint="solid">
      <stop
         id="stop5608"
         offset="0"
         style="stop-color:#000000;stop-opacity:1;" />
    </linearGradient>
    <linearGradient
       id="linearGradient4207"
       osb:paint="gradient">
      <stop
         style="stop-color:#3498db;stop-opacity:1;"
         offset="0"
         id="stop3371" />
      <stop
         style="stop-color:#3498db;stop-opacity:0;"
         offset="1"
         id="stop3373" />
    </linearGradient>
  </defs>
  <path
     id="path4271"
     d="M 9.3333332,11.333333 H 4.6666672 V 9.9999998 h 4.666666 M 11.333333,8.6666665 H 4.6666672 V 7.3333332 h 6.6666658 m 0,-1.3333333 H 4.6666672 V 4.6666666 H 11.333333 M 12.666666,2 H 3.3333332 C 2.5933333,2 2.0000002,2.5933333 2.0000002,3.3333333 V 12.666667 A 1.3333333,1.3333333 0 0 0 3.3333332,14 H 12.666666 A 1.3333333,1.3333333 0 0 0 14,12.666667 V 3.3333333 C 14,2.5933333 13.4,2 12.666666,2 Z"
     inkscape:connector-curvature="0"
     style="fill:#bebebe;fill-opacity:1;stroke-width:0.66666663" />
</svg>
